ui/StatusQ/src/assets/img/icons/profile/sound.svg

<svg fill="none" height="20" viewBox="0 0 18 20" width="18" xmlns="http://www.w3.org/2000/svg"><path clip-rule="evenodd" d="m5.25 7.01296c-.00017-.00932-.00017-.01862 0-.02789v-1.48147c0-1.81232 1.29609-3.36531 3.07918-3.68951l6.17892-1.123431c1.688-.306921 3.2419.989901 3.2419 2.705641v1.59044c.0002.00935.0002.01869 0 .02799v9.34557c0 1.3108-.9253 2.4395-2.2107 2.6966l-1.0464.2093c-1.6777.3355-3.2429-.9477-3.2429-2.6586 0-1.2923.9122-2.405 2.1795-2.6585l1.8156-.3631c.5843-.1169 1.0049-.6299 1.0049-1.2257v-3.86266c0-.31195-.2825-.54774-.5894-.49193l-8.50004 1.54545c-.23775.04323-.41056.25029-.41056.49194v8.3172c0 1.3108-.92526 2.4395-2.21068 2.6966l-1.04646.2093c-1.67764.3355-3.24286-.9477-3.24286-2.6586 0-1.2923.9122-2.405 2.17946-2.6585l1.81568-.3631c.58428-.1169 1.00486-.6299 1.00486-1.2257zm9.5264-4.8465c.7673-.13951 1.4736.44996 1.4736 1.22984v.56035c0 .24165-.1728.44871-.4106.49194l-8.50143 1.54572c-.30615.05566-.58797-.17953-.58797-.49071 0-1.08739.77765-2.01918 1.84751-2.2137zm.7629 10.89044c.3385-.0677.7107.1627.7107.5079v.7955c0 .5958-.4206 1.1088-1.0049 1.2257l-1.0464.2093c-.7495.1499-1.4487-.4234-1.4487-1.1877 0-.5773.4075-1.0744.9736-1.1876zm-10.99998 2c.33852-.0677.71068.1627.71068.5079v.7955c0 .5958-.42057 1.1088-1.00485 1.2257l-1.04646.2093c-.74946.1499-1.44869-.4234-1.44869-1.1877 0-.5773.40751-1.0744.97363-1.1876z" fill="#4360df" fill-rule="evenodd"/></svg>

<svg width="18" height="20" viewBox="0 0 18 20" fill="none" xmlns="http://www.w3.org/2000/svg">
<path fill-rule="evenodd" clip-rule="evenodd" d="M5.25 7.01296C5.24983 7.00364 5.24983 6.99434 5.25 6.98507V5.5036C5.25 3.69128 6.54609 2.13829 8.32918 1.81409L14.5081 0.690659C16.1961 0.383738 17.75 1.68056 17.75 3.3963V4.98674C17.7502 4.99609 17.7502 5.00543 17.75 5.01473V14.3603C17.75 15.6711 16.8247 16.7998 15.5393 17.0569L14.4929 17.2662C12.8152 17.6017 11.25 16.3185 11.25 14.6076C11.25 13.3153 12.1622 12.2026 13.4295 11.9491L15.2451 11.586C15.8294 11.4691 16.25 10.9561 16.25 10.3603V6.49764C16.25 6.18569 15.9675 5.9499 15.6606 6.00571L7.16056 7.55116C6.92281 7.59439 6.75 7.80145 6.75 8.0431V16.3603C6.75 17.6711 5.82474 18.7998 4.53932 19.0569L3.49286 19.2662C1.81522 19.6017 0.25 18.3185 0.25 16.6076C0.25 15.3153 1.1622 14.2026 2.42946 13.9491L4.24514 13.586C4.82942 13.4691 5.25 12.9561 5.25 12.3603V7.01296ZM14.7764 2.16646C15.5437 2.02695 16.25 2.61642 16.25 3.3963V3.95665C16.25 4.1983 16.0772 4.40536 15.8394 4.44859L7.33797 5.99431C7.03182 6.04997 6.75 5.81478 6.75 5.5036C6.75 4.41621 7.52765 3.48442 8.59751 3.2899L14.7764 2.16646ZM15.5393 13.0569C15.8778 12.9892 16.25 13.2196 16.25 13.5648V14.3603C16.25 14.9561 15.8294 15.4691 15.2451 15.586L14.1987 15.7953C13.4492 15.9452 12.75 15.3719 12.75 14.6076C12.75 14.0303 13.1575 13.5332 13.7236 13.42L15.5393 13.0569ZM4.53932 15.0569C4.87784 14.9892 5.25 15.2196 5.25 15.5648V16.3603C5.25 16.9561 4.82943 17.4691 4.24515 17.586L3.19869 17.7953C2.44923 17.9452 1.75 17.3719 1.75 16.6076C1.75 16.0303 2.15751 15.5332 2.72363 15.42L4.53932 15.0569Z" fill="#4360DF"/>
</svg>
